icon/pk/vip-one.svg

<svg viewBox="0 0 48 48" fill="none" xmlns="http://www.w3.org/2000/svg" height="1em" width="1em">
  <path d="M4.50326 16.3661L12.5158 7.67177C12.909 7.2452 13.4807 7 14.0821 7H33.9179C34.5193 7 35.091 7.2452 35.4842 7.67177L43.4967 16.3661C44.1809 17.1084 44.1659 18.2125 43.4618 18.9383L24.7499 40.1499C24.3518 40.6012 23.6482 40.6012 23.2501 40.1499L4.5382 18.9383C3.83415 18.2125 3.81915 17.1084 4.50326 16.3661Z" fill="#2F88FF" stroke="black" stroke-width="4" stroke-linecap="round" stroke-linejoin="round"/>
  <path d="M16 20L24 29L32 20" stroke="white" stroke-width="4" stroke-linecap="round" stroke-linejoin="round"/>
</svg>

<svg width="48" height="48" fill="none" xmlns="http://www.w3.org/2000/svg"><path d="m4.503 16.366 8.013-8.694A2.13 2.13 0 0 1 14.082 7h19.836a2.13 2.13 0 0 1 1.566.672l8.013 8.694a1.85 1.85 0 0 1-.035 2.572L24.75 40.15a1 1 0 0 1-1.5 0L4.538 18.938a1.85 1.85 0 0 1-.035-2.572Z" fill="#2F88FF" stroke="#000" stroke-width="4" stroke-linecap="round" stroke-linejoin="round"/><path d="m16 20 8 9 8-9" stroke="#fff" stroke-width="4" stroke-linecap="round" stroke-linejoin="round"/></svg>
